static/images/mobile/copyright/wikiquote.svg

<?xml version="1.0" encoding="UTF-8"?>
<svg xmlns="http://www.w3.org/2000/svg" width="50" height="50" viewBox="0 0 50 50">
	<title>
		wikiquote-logo
	</title>
	<defs>
		<radialGradient id="radialGradient-1" cx="50%" cy="50%" r="50%" fx="50%" fy="50%">
			<stop offset="0%" stop-color="#00003B"/>
			<stop offset="100%" stop-color="#002F64"/>
		</radialGradient>
	</defs>
	<g id="wikiquote-logo" fill="none" fill-rule="evenodd" stroke="none" stroke-width="1">
		<g id="Group" fill-rule="nonzero" transform="translate(5)">
			<path id="Path" fill="#003B6F" d="M17.6969074,11.5153983 C22.0016407,14.524505 24.6210972,19.4402739 24.6210972,24.7936831 C24.6210972,30.0241864 22.12053,34.8368616 17.9908677,37.8616111 L17.693133,38.0746055 L15.4023646,34.7955233 C18.6492681,32.5272349 20.6210972,28.8281061 20.6210972,24.7936831 C20.6210972,20.8791092 18.764691,17.2801743 15.6882302,14.9976758 L15.4052086,14.7938303 L17.6969074,11.5153983 Z"/>
			<circle id="circle3145" cx="8.304" cy="24.62" r="8.304" fill="url(#radialGradient-1)"/>
			<path id="Path" fill="#6FA0D0" d="M29.4630548,-1.77635684e-14 C36.6926128,6.13859229 40.9427808,15.1228043 40.9427808,24.7936831 C40.9427808,34.3659086 36.7788396,43.2651999 29.6839966,49.398081 L29.4437363,49.6037566 L26.590803,46.2385083 C32.8532473,40.9294392 36.5309644,33.1632584 36.5309644,24.7936831 C36.5309644,16.5337705 32.9490413,8.86139646 26.835111,3.55835747 L26.6075133,3.36303535 L29.4630548,-1.77635684e-14 Z"/>
			<path id="Path" fill="#3B6FA0" d="M23.4533049,5.91675384 C29.1614222,10.4650098 32.5547094,17.3524375 32.5547094,24.7936831 C32.5547094,32.1350153 29.2519434,38.9373546 23.6818223,43.4862705 L23.4578106,43.6670213 L20.7952615,40.3271194 C25.4946957,36.5807596 28.2833967,30.9187442 28.2833967,24.7936831 C28.2833967,18.7612108 25.5783565,13.1779256 21.0071873,9.43154951 L20.7915502,9.25728882 L23.4533049,5.91675384 Z"/>
		</g>
	</g>
</svg>

<svg xmlns="http://www.w3.org/2000/svg" width="50" height="50"><defs><radialGradient id="a" cx="50%" cy="50%" r="50%" fx="50%" fy="50%"><stop offset="0%" stop-color="#00003B"/><stop offset="100%" stop-color="#002F64"/></radialGradient></defs><g fill-rule="nonzero" transform="translate(5)" fill="none"><path fill="#003B6F" d="M17.697 11.515a16.171 16.171 0 0 1 6.924 13.279c0 5.23-2.5 10.043-6.63 13.068l-.298.213-2.29-3.28a12.172 12.172 0 0 0 5.218-10.001 12.17 12.17 0 0 0-4.933-9.796l-.283-.204 2.292-3.279z"/><circle cx="8.304" cy="24.62" r="8.304" fill="url(#a)"/><path fill="#6FA0D0" d="M29.463 0c7.23 6.139 11.48 15.123 11.48 24.794a32.437 32.437 0 0 1-11.259 24.604l-.24.206-2.853-3.365c6.262-5.31 9.94-13.076 9.94-21.445 0-8.26-3.582-15.933-9.696-21.236l-.227-.195L29.463 0z"/><path fill="#3B6FA0" d="M23.453 5.917a24.08 24.08 0 0 1 9.102 18.877 24.077 24.077 0 0 1-8.873 18.692l-.224.181-2.663-3.34a19.81 19.81 0 0 0 7.488-15.533 19.806 19.806 0 0 0-7.276-15.362l-.215-.175 2.661-3.34z"/></g></svg>
